X: 1
T: the Spotted Pony
O: RJ R-48
M: C|
S: Roaring Jelly collection
Z: Transcribed to abc by Mary Lou Knack
R: reel
K: D
|:\
"D"D2D2 "A"E2E2 | "D"FDF2 "G"G4 | "D"ABde fede | f2a2 "A"e2 FE |
"D"D2D2 "A"E2E2 | "D"FDF2 "G"G4 | "D"ABAB dBAG | "D"F2"A"E2 "D"D4 :|
|:\
"D"f2a2 f4 | "G"efed BcdB | "D"ABde fede | f2a2 "A"e4 |
"D"f2a2 f4 | "G"efed BcdB | "D"ABAB dBAG | "A"F2E2 "D"D4 :|
